icons/src/fluent/svg/person_24_filled.svg

<svg width="24" height="24" viewBox="0 0 24 24" fill="none" xmlns="http://www.w3.org/2000/svg">
<path d="M17.7545 14.0002C18.9966 14.0002 20.0034 15.007 20.0034 16.2491V17.1675C20.0034 17.7409 19.8242 18.2999 19.4908 18.7664C17.9449 20.9296 15.4206 22.0013 12.0004 22.0013C8.5794 22.0013 6.05643 20.9292 4.51427 18.7648C4.18231 18.2989 4.00391 17.7411 4.00391 17.169V16.2491C4.00391 15.007 5.01076 14.0002 6.25278 14.0002H17.7545ZM12.0004 2.00488C14.7618 2.00488 17.0004 4.24346 17.0004 7.00488C17.0004 9.76631 14.7618 12.0049 12.0004 12.0049C9.23894 12.0049 7.00036 9.76631 7.00036 7.00488C7.00036 4.24346 9.23894 2.00488 12.0004 2.00488Z" fill="#212121"/>
</svg>

<svg width="24" height="24" fill="none" viewBox="0 0 24 24" xmlns="http://www.w3.org/2000/svg"><path d="M17.754 14a2.249 2.249 0 0 1 2.25 2.249v.918a2.75 2.75 0 0 1-.513 1.599C17.945 20.929 15.42 22 12 22c-3.422 0-5.945-1.072-7.487-3.237a2.75 2.75 0 0 1-.51-1.595v-.92a2.249 2.249 0 0 1 2.249-2.25h11.501ZM12 2.004a5 5 0 1 1 0 10 5 5 0 0 1 0-10Z" fill="#212121"/></svg>
